X: 0
T: Claret and Oysters
C: Andy Anderson
F: http://www.pd49.dial.pipex.com/morris/choreog/claret.htm
Z: Debbie Lewis?
M: 4/4
K: G
L: 1/8
E2 |: G2 G2 GF G2 | A2 B2 c2 d2 | e2 ge dB G2 |1 GF G2 A2 BA :|2 AG F2 G4 ||
[| A2 AA A2 B2 | cd c2 Bc d2 | g2 d2 g2 d2 | cd c2 Bc d2 | g2 d2 g2 d2 | cB A2 G2 |]


